X:35
T: Sonny Brogan's
S: "Floating Crowbar"
Z: B.Black
R: jig
M: 6/8
L: 1/8
K: Ador
E | AGA cBc | dcd e3 | AGA cde | dcA GED |
AGA cBc | dcd e3 | age ged | cAG A2 :|
d | eaa aba | gef g3 | eaa aba | ged cAA |
eaa aba | gef g3 | age ged | cAG A2 :|
